hush

bps (2.1)

d1 $ stack [
  s "db:3 ~ db:3*2 ~",
  s "db:3 ~ db:5 sn:2",
  s "808:14 ~ 808:14 ~",
]
# gain "[0 1]/2"

d2 $ stack [
  s "~ db:3 ~ db:3*2",
  s "db:3 ~ db:5 sn:3",
  s "808:14 ~ 808:14 ~"
]
# gain "[1 0]/2"

d3 $ s "db:5*4"

d4 $ stack [
  s "db:7"
]
# gain "[1 0 0 0]/4"

d5 $ s
