hush

bps (2)

d1 $ s "[hh:0*2 bd:2*2  hh:0*2 bd:2*2  hh:0*2 bd:2*2 hh:0*1 bd:2*1, sn:1*2 ~ ~, db:8*2, hh:10]"
# gain 1.3

d2 $ every 2 (rev)
$ s "~ lt ~ lt:3"

d3 $ s "sid:2*8"
# gain "[1.2 0]/2"
# vowel (choose ["o"])

d4
$ s "bd:*4 ~~ bd:5"
# gain "[0 1.5]/2"

d5 $ s "arpy"
$ s "newnotes:9"

d8
$ sound (samples "newnotes*16?" (run 8))
# speed (slow 1.0 $ scale 0.25 2 0.5)

d7
$ s "arpy:5 arpy:2 arpy:0 arpy:8?"
# legato 1.25
# vowel "o"
