-- Tutorial #4: Patterns continued
hush

d1 $ n ((+1) "[d4 d4 c3 d5, c4 c5] *2")
  # s "supersaw"
  # gain 0.5

d2
  $ sound "cp(5, 8, 5)"
  # gain n (irand(15))

d1
  $ sound "cp*4"
  # n (irand 2,4)

d1 $ s "cp*4"
# gain "1 0.9 0.8 0.6"
# speed 1.4
