hush

bps(60/120)

d1  $ every 2 (stut 4 0.5 0.65)
    $ s "cp sn bd sn . [bd bd db?]*3? cp"




d1 $ s "sn"

d1 $ n "c"
 # s superchip


 d1 $ n ( "[d4, a4] c3? d1")
   # s "superchip"


d2 $ palindrome
   $ sound "arpy:0 ~ ~ ~ arpy:3"
   # s "supernoise"
   # legato 0.7
   # gain 0.8




d1 $ s "bd bd ~ bd:2 hit*3"
d1 silence





    # gain 0.90


d2 $ stut 8 0.95 0.15
   $ n "0 1"
   # n (irand 2)
   # sound "numbers"
   # gain 0.8

d2 silence

hush
