hush

d1 $ stut 1 (1/2) (1/2)
   $ sound "blip*8"
   # n (irand 4)
   # legato (slow (1/8) sine)

t2 (xfadeIn 1)
   $ n "c5 ~ c3 ~ d5 ~ e4?"
   # s "superchip"



   # legato (scale 0.5 1.25 (fast .01 sine))




t2 silence
